!!!!SEGMENT: pl-kk--kk-i-134--003-002_lasso-ferdinand-di--domine-non-est-exaltatum-sicut-ablactatus-est.krn
!!!cenid: 16xx:744
!!!COM: Lasso, Ferdinand di
!!!COM-rismid: pe30010768
!!!CDT: ~1560-1609
!!!CNT:
!!!OPR: Domine non est exaltatum
!!!OTL: Sicut ablactatus est
!!!OMV: 002
!!!PDT:
!!!AGN: Sacred
!!!SMS-siglum: PL-Kk
!!!SMS-shelfmark: Kk.I.134
!!!SMS-shelfwork: 003-002 M
!!!SMS-variant:
!!!SMS-altvar:
!!!NIFC-rismid: 1001143942
!!!URL-scan: http://repozytorium.nifc.pl/skany/pl-kk-nut--i-134
!!!ONB-nifc: UWAGA: utwory w zbiorze: 1. Benedicte dominum, 2. Gaudent in caelis, 3. Domine non est exaltatum – Domine… (1), 3. Domine non est exaltatum – Sicut ablactus est (2), 4. Hodie Christus
**kern	**text
*Iempty	*
*I"Baſso.	*
*I'B	*
*clefF4	*
*k[b-]	*
*B-:	*
*M2/2	*
*met(c|)	*
=1-	=1-
!LO:TX:t=P:problem:znaki przykluczowe: B- BB-	!
!LO:TX:rj:a:t=2-da\npars	!
00r	.
=2-	=2-
.	.
=3-	=3-
.	.
=4-	=4-
.	.
=5-	=5-
0r	.
=6-	=6-
.	.
=7-	=7-
1r	.
=8-	=8-
1F\	Si-
=9-	=9-
*2\right	*
2D\	-cut
1F\	ab-
=10-	=10-
.	.
!!LO:LB:g=original
2E\	-la-
=11-	=11-
2D\	-cta-
2D\	-tus
=12-	=12-
0C/	est
=13-	=13-
!LO:TX:t=P:problem:kreska pseudotaktowa	!
.	.
=14-	=14-
1r	.
=15-	=15-
2r	.
1F\	su-
=16-	=16-
.	.
2E\	-per
=17-	=17-
1F\	ma-
=18-	=18-
0C/	-trem
=19-	=19-
!LO:TX:t=P:problem:kreska pseudotaktowa	!
.	.
=20-	=20-
0C/	su-
=21-	=21-
.	.
=22-	=22-
!LO:TX:t=P:problem:kreska pseudotaktowa	!
1FF/	-am
=23-	=23-
0r	.
=24-	=24-
.	.
=25-	=25-
1r	.
=26-	=26-
2r	.
1D\	i-
=27-	=27-
.	.
2D\	-ta
=28-	=28-
2E-X\	re-
4D/	.
4C/	.
=29-	=29-
2BB-/	.
2GG/	-tri-
=30-	=30-
2C/	-bu-
!LO:TX:t=P:problem:kreska pseudotaktowa	!
2D/	-ti-
=31-	=31-
4F\	-o
4Eny\	.
4D\	.
4C\	.
=32-	=32-
4BB-/	.
4C/	.
1D\	.
=33-	=33-
.	.
4C/	.
4BB-/	.
=34-	=34-
!LO:TX:t=P:problem:kreska pseudotaktowa	!
1AA/	.
!!LO:LB:g=original
=35-	=35-
0r	.
=36-	=36-
.	.
=37-	=37-
2r	.
2AA/	in
=38-	=38-
2.BB-/	a-
4BB-/	-ni-
=39-	=39-
2AA/	-ma
2.BB-/	me-
=40-	=40-
.	.
4C/	.
!LO:TX:t=P:problem:kreska pseudotaktowa	!
2D/	.
=41-	=41-
2G,<\	-a
2GG/	in
=42-	=42-
2.D/	a-
4D/	-(ni-
=43-	=43-
!LO:TX:t=P:problem:kreska pseudotaktowa	!
1GG/	-m)a
=44-	=44-
2.AA/	me-
4BB-/	.
=45-	=45-
1C/	.
=46-	=46-
2FF,</	-a
!LO:TX:t=P:problem:kreska pseudotaktowa	!
2FF/	in
=47-	=47-
2C/	a-
2C/	-ni-
=48-	=48-
1D\	-ma
=49-	=49-
1F\	.
=50-	=50-
2.F\	me-
4E\	.
=51-	=51-
4D/	.
4C/	.
2BB-/	.
=52-	=52-
!LO:TX:t=P:problem:kreska pseudotaktowa	!
1AA/	-a
=53-	=53-
1r	.
=54-	=54-
2r	.
1D\	spe-
=55-	=55-
!LO:SIC:v:t=custos GG	!
!!LO:PB:g=original
.	.
!LO:TX:t=P:problem:kreska pseudotaktowa	!
2GG/	-ret
=56-	=56-
2.BB-/	I-
4C/	.
=57-	=57-
2D\	-sra-
2E-X\	.
=58-	=58-
2BB-,</	-el
2BB-/	in
=59-	=59-
2.BB-/	Do-
4C/	.
=60-	=60-
2D/	.
2D/	-mi-
=61-	=61-
!LO:TX:t=P:problem:kreska pseudotaktowa	!
1F\	-no
=62-	=62-
0r	.
=63-	=63-
.	.
=64-	=64-
1r	.
=65-	=65-
2r	.
1D\	ex
=66-	=66-
.	.
2BB-/	hoc
=67-	=67-
2.F\	nunc
4Eny\	.
=68-	=68-
4D\	.
4C\	.
2.BB-/	.
=69-	=69-
.	.
4AA/	.
!LO:TX:t=P:problem:kreska pseudotaktowa	!
2GG/	.
=70-	=70-
2FF/	et
2C/	us-
=71-	=71-
2BB-X/	-(que)
2FF/	in
=72-	=72-
2.C/	sae-
4C/	-cu-
=73-	=73-
2F\	-lum
*	*ij
2FF/	in
=74-	=74-
2BB-/	sae-
2BB-/	-cu-
=75-	=75-
00FF/	-lum
=76-	=76-
.	.
=-	=-
.	.
=-	=-
.	.
==	==
*-	*-
!!!EED: Leszek Kubiak
!!!EST: 2021-02-16
!!!ENC: Krzysztof Stępień
!!!END: 2021-02-11
